!!!OTL: "Der Raecher" EIN ADELER FLOG ER FLOG SO WEIT
!!!ARE: Europa, Mitteleuropa, Deutschland, Niederrhein
!!!SCT: Z1031
!!!YEM: Copyright 1995, estate of Helmut Schaffrath.
**kern
*ICvox
*Ivox
*M6/8
*k[b-e-]
*g:
{8dd
=1
8b-
8a
8g
4a
8b-
=2
8cc
8a
8b-
4g}
{8f#
=3
8g
8b-
8a
8g
8cc
8a
=4
8b-
8a
8g
4a}
{8g
=5
4f#
8g
8a
8g
8dd
=6
8.dd
16cc
16b-
16a
4g}
{8fn
=7
8.dd
16ee
16ffn
16ee
8dd
8cc
8b-
=8
4a
8dd
8cc
8b-}
{8g
=9
8a
8g
8dd
8.dd
16cc
16b-
16a
=10
4g
4.r}
==
!!!AGN: Romanze, Ballade, Tod
!!!ONB: ESAC (Essen Associative Code) Database: ZUCCAL
!!!AMT: compound duple
!!!AIN: vox
!!!EED: Helmut Schaffrath
!!!EEV: 1.0
*-
